KINDER
CUT[MAIKAEFER FLIEG]
REG[Europa, Mitteleuropa, Deutschland, Thueringen; Vogtland]
KEY[K0798A 16  G 2/4]
MEL[  5__3_2_  1__0_
    -5_  1_.23_4_  5__0_
    5_  3_5_6_5_  5_4_4__
    4_3_2_4_  6_5_3__
    5__3_2_  1__0__ //] >>
FCT[Kinder -, Tier - Lied]
